X: 35675
T: Sailor's Wife, The
R: jig
M: 6/8
K: Ddorian
|:E|DEF E2 D|d2 e f2 g|agf edc|A/B/cA GEA|
DD/E/F E2 D|d2 e f2 g|afd ge^c|d3 D2:|
|:e|fga f2 a|fda agf|ecg e2 c|ee/f/g gfe|
fga agf|ecg gfe|dd/e/f ed^c|d3 D2:|

